storage/app/icons/phosphoricons/bold/file-arrow-down-bold.svg

<svg xmlns="http://www.w3.org/2000/svg" fill="currentColor" viewBox="0 0 256 256"><path d="m216.49 79.52-56-56A12 12 0 0 0 152 20H56a20 20 0 0 0-20 20v176a20 20 0 0 0 20 20h144a20 20 0 0 0 20-20V88a12 12 0 0 0-3.51-8.48M160 57l23 23h-23ZM60 212V44h76v48a12 12 0 0 0 12 12h48v108Zm100.49-60.49a12 12 0 0 1 0 17l-24 24a12 12 0 0 1-17 0l-24-24a12 12 0 0 1 17-17L116 155v-31a12 12 0 0 1 24 0v31l3.51-3.52a12 12 0 0 1 16.98.03"/></svg>

<svg xmlns="http://www.w3.org/2000/svg" viewBox="0 0 256 256" fill="currentColor"><path d="M216.49,79.52l-56-56A12,12,0,0,0,152,20H56A20,20,0,0,0,36,40V216a20,20,0,0,0,20,20H200a20,20,0,0,0,20-20V88A12,12,0,0,0,216.49,79.52ZM160,57l23,23H160ZM60,212V44h76V92a12,12,0,0,0,12,12h48V212Zm100.49-60.49a12,12,0,0,1,0,17l-24,24a12,12,0,0,1-17,0l-24-24a12,12,0,0,1,17-17L116,155V124a12,12,0,0,1,24,0v31l3.51-3.52A12,12,0,0,1,160.49,151.51Z"/></svg>
